symbols/web/play_lesson/materialsymbolsrounded/play_lesson_fill1_24px.svg

<svg xmlns="http://www.w3.org/2000/svg" height="24" width="24"><path d="M5 22q-.825 0-1.413-.587Q3 20.825 3 20V4q0-.825.587-1.413Q4.175 2 5 2h12q.825 0 1.413.587Q19 3.175 19 4v7.075q-.25-.05-.538-.063Q18.175 11 18 11q-2.875 0-4.938 2.037Q11 15.075 11 18q0 1.075.325 2.1.325 1.025.95 1.9Zm13 1q-2.075 0-3.537-1.462Q13 20.075 13 18q0-2.075 1.463-3.538Q15.925 13 18 13t3.538 1.462Q23 15.925 23 18q0 2.075-1.462 3.538Q20.075 23 18 23Zm-.475-2.975 2.55-1.6q.225-.15.225-.425t-.225-.425l-2.55-1.6q-.275-.15-.525-.012-.25.137-.25.437v3.2q0 .3.25.438.25.137.525-.013ZM7.75 10.55 9.5 9.5l1.75 1.05q.25.15.5 0t.25-.425V4H7v6.125q0 .275.25.425.25.15.5 0Z"/></svg>

<svg xmlns="http://www.w3.org/2000/svg" height="24" width="24"><path d="M5 22Q4.175 22 3.587 21.413Q3 20.825 3 20V4Q3 3.175 3.587 2.587Q4.175 2 5 2H17Q17.825 2 18.413 2.587Q19 3.175 19 4V11.075Q18.75 11.025 18.462 11.012Q18.175 11 18 11Q15.125 11 13.062 13.037Q11 15.075 11 18Q11 19.075 11.325 20.1Q11.65 21.125 12.275 22ZM18 23Q15.925 23 14.463 21.538Q13 20.075 13 18Q13 15.925 14.463 14.462Q15.925 13 18 13Q20.075 13 21.538 14.462Q23 15.925 23 18Q23 20.075 21.538 21.538Q20.075 23 18 23ZM17.525 20.025 20.075 18.425Q20.3 18.275 20.3 18Q20.3 17.725 20.075 17.575L17.525 15.975Q17.25 15.825 17 15.963Q16.75 16.1 16.75 16.4V19.6Q16.75 19.9 17 20.038Q17.25 20.175 17.525 20.025ZM7.75 10.55 9.5 9.5 11.25 10.55Q11.5 10.7 11.75 10.55Q12 10.4 12 10.125V4H7V10.125Q7 10.4 7.25 10.55Q7.5 10.7 7.75 10.55Z"/></svg>
